**harmony	**harte	**kern	**silbe	**kern.1	**silbe.1	**rhyme	**timestamp	**phrase
*M4/4	*M4/4	*ICvox	*	*ICvox	*	*	*	*
*	*	*VRlead	*	*VRresponse	*	*	*	*
*	*	*Hstimme	*	*Nstimme	*	*	*	*
*c:	*c:	*c:	*	*c:	*	*	*c:	*c:
*	*	*M4/4	*	*M4/4	*	*	*	*
*	*	*clefG2	*	*clefF4	*	*	*	*
1r;	1r	r;	.	r;	.	.	0	.
=1	=1	=1	=1	=1	=1	=1	=1	=1
*>Letter>A	*>Letter>A	*>Letter>A	*>Letter>A	*>Letter>A	*>Letter>A	*>Letter>A	*>Letter>A	*>Letter>A
*>Label>Intro	*>Label>Intro	*>Label>Intro	*>Label>Intro	*>Label>Intro	*>Label>Intro	*>Label>Intro	*>Label>Intro	*>Label>Intro
4Cmm	C:min7	1r	.	1r	.	.	0.488	newline
4B-M	B-:maj	.	.	.	.	.	0.989	.
2A-MM	A-:maj7	.	.	.	.	.	1.491	.
=2	=2	=2	=2	=2	=2	=2	=2	=2
4Gmm	G:min7	1r	.	1r	.	.	2.495	.
2.Fmm	F:min7	.	.	.	.	.	2.996	.
=3	=3	=3	=3	=3	=3	=3	=3	=3
4Cmm	C:min7	1r	.	1r	.	.	4.502	.
4B-M	B-:maj	.	.	.	.	.	5.004	.
2A-MM	A-:maj7	.	.	.	.	.	5.505	.
=4	=4	=4	=4	=4	=4	=4	=4	=4
4Gmm	G:min7	1r	.	1r	.	.	6.509	.
2Fmm	F:min7	.	.	.	.	.	7.011	.
4GMm	G:7	.	.	.	.	.	8.014	.
=5	=5	=5	=5	=5	=5	=5	=5	=5
4Cmm	C:min7	1r	.	1r	.	.	8.516	newline
4B-M	B-:maj	.	.	.	.	.	9.013	.
2A-MM	A-:maj7	.	.	.	.	.	9.51	.
=6	=6	=6	=6	=6	=6	=6	=6	=6
4Gmm	G:min7	1r	.	1r	.	.	10.503	.
2.Fmm	F:min7	.	.	.	.	.	11	.
=7	=7	=7	=7	=7	=7	=7	=7	=7
4A-MM	A-:maj7	1r	.	1r	.	.	12.49	.
4Gmm	G:min7	.	.	.	.	.	12.987	.
2Fmm	F:min7	.	.	.	.	.	13.484	.
=8	=8	=8	=8	=8	=8	=8	=8	=8
4FM	F:maj/2	1r	.	1r	.	.	14.478	.
2.Fmm	F:min7	.	.	.	.	.	14.974	.
=9	=9	=9	=9	=9	=9	=9	=9	=9
1Fmm	F:min7	1r	.	1r	.	.	16.465	.
=10	=10	=10	=10	=10	=10	=10	=10	=10
*>Letter>A	*>Letter>A	*>Letter>A	*>Letter>A	*>Letter>A	*>Letter>A	*>Letter>A	*>Letter>A	*>Letter>A
*>Label>Chorus	*>Label>Chorus	*>Label>Chorus	*>Label>Chorus	*>Label>Chorus	*>Label>Chorus	*>Label>Chorus	*>Label>Chorus	*>Label>Chorus
4Cmm	C:min7	8g	La-	1r	.	(A	18.452	newline
.	.	8g	-dy,	.	.	a)	.	.
4B-M	B-:maj	4r	.	.	.	.	18.948	.
2A-MM	A-:maj7	2r	.	.	.	.	19.444	.
=11	=11	=11	=11	=11	=11	=11	=11	=11
4Gmm	G:min7	4r	.	1r	.	.	20.436	.
2.Fmm	F:min7	8r	.	.	.	.	20.932	.
.	.	8c	you	.	.	.	.	.
.	.	4e-	bring	.	.	.	.	.
.	.	8c	me	.	.	.	.	.
.	.	8g	up	.	.	.	.	.
=12	=12	=12	=12	=12	=12	=12	=12	=12
4Cmm	C:min7	8r	.	1r	.	.	22.42	.
.	.	8B-	when	.	.	.	.	.
4B-M	B-:maj	8c	I	.	.	.	22.916	.
.	.	8B-	am	.	.	(b	.	.
2A-MM	A-:maj7	4c	down.	.	.	B)	23.412	.
.	.	4r	.	.	.	.	.	.
=13	=13	=13	=13	=13	=13	=13	=13	=13
4Gmm	G:min7	2r	.	1r	.	.	24.404	.
2Fmm	F:min7	.	.	.	.	.	24.9	.
.	.	4r	.	.	.	.	.	.
4GMm	G:7/3	8r	.	.	.	.	25.892	.
.	.	8c	And	.	.	.	.	.
=14	=14	=14	=14	=14	=14	=14	=14	=14
4Cmm	C:min7	8g	may-	1r	.	(A	26.388	newline
.	.	8g	-be,	.	.	a)	.	.
4B-M	B-:maj	16f	_	.	.	.	26.884	.
.	.	16e-	_	.	.	.	.	.
.	.	8r	.	.	.	.	.	.
2A-MM	A-:maj7	2r	.	.	.	.	27.379	.
=15	=15	=15	=15	=15	=15	=15	=15	=15
4Gmm	G:min7	4r	.	1r	.	.	28.371	.
2.Fmm	F:min7	8r	.	.	.	.	28.866	.
.	.	8c	you're	.	.	.	.	.
.	.	4e-	gon-	.	.	.	.	.
.	.	8c	-na	.	.	.	.	.
.	.	[8g	change	.	.	.	.	.
=16	=16	=16	=16	=16	=16	=16	=16	=16
4A-MM	A-:maj7	8g]	_	1r	.	.	30.353	.
.	.	8B-	my	.	.	.	.	.
4Gmm	G:min7	8c	life	.	.	.	30.849	.
.	.	8B-	a-	.	.	(b	.	.
2Fmm	F:min7	4c	-round.	.	.	B)	31.345	.
.	.	4r	.	.	.	.	.	.
=17	=17	=17	=17	=17	=17	=17	=17	=17
4FM	F:maj/2	1r	.	1r	.	.	32.336	.
2.Fmm	F:min7	.	.	.	.	.	32.832	.
=18	=18	=18	=18	=18	=18	=18	=18	=18
1Fmm	F:min7	1r	.	1r	.	.	34.319	.
=19	=19	=19	=19	=19	=19	=19	=19	=19
*>Letter>B	*>Letter>B	*>Letter>B	*>Letter>B	*>Letter>B	*>Letter>B	*>Letter>B	*>Letter>B	*>Letter>B
*>Label>Verse	*>Label>Verse	*>Label>Verse	*>Label>Verse	*>Label>Verse	*>Label>Verse	*>Label>Verse	*>Label>Verse	*>Label>Verse
4Cmm	C:min7	4r	.	1r	.	.	36.302	newline
2.B-M	B-:maj	4g	You	.	.	.	36.799	.
.	.	4e-	came	.	.	.	.	.
.	.	8c	to	.	.	.	.	.
.	.	[8c	me	.	.	C	.	.
=20	=20	=20	=20	=20	=20	=20	=20	=20
4Fmm	F:min7	8c]	_	1r	.	.	38.289	.
.	.	8B-	when	.	.	.	.	.
2.Gmm	G:min7	8c	I	.	.	.	38.786	.
.	.	8B-	was	.	.	.	.	.
.	.	4c	lone-	.	.	(C	.	.
.	.	8e-	-ly,	.	.	c)	.	.
.	.	8r	.	.	.	.	.	.
=21	=21	=21	=21	=21	=21	=21	=21	=21
4Cmm	C:min7	4r	.	1r	.	.	40.277	.
2.B-M	B-:maj	4g	and	.	.	.	40.774	.
.	.	4e-	no-	.	.	.	.	.
.	.	8c	-one	.	.	.	.	.
.	.	8B-q	_	.	.	.	.	.
.	.	8c	cared	.	.	D	.	.
=22	=22	=22	=22	=22	=22	=22	=22	=22
.	.	8B-q	_	.	.	.	.	.
4Fmm	F:min7	8c	_	1r	.	.	42.264	.
.	.	[8B-	_	.	.	.	.	.
2.Gmm	G:min7	4B-]	_	.	.	.	42.761	.
.	.	2r	.	.	.	.	.	.
=23	=23	=23	=23	=23	=23	=23	=23	=23
4Cmm	C:min7	4r	.	1r	.	.	44.252	newline
2.B-M	B-:maj	4g	You	.	.	.	44.749	.
.	.	4e-	made	.	.	.	.	.
.	.	8c	me	.	.	.	.	.
.	.	[8c	see	.	.	.	.	.
=24	=24	=24	=24	=24	=24	=24	=24	=24
4Fmm	F:min7	8c]	_	1r	.	.	46.24	.
.	.	8B-	that	.	.	.	.	.
2.Gmm	G:min7	8c	I	.	.	.	46.737	.
.	.	8B-	was	.	.	.	.	.
.	.	4c	on-	.	.	(C	.	.
.	.	8e-	-ly	.	.	c)	.	.
.	.	8r	.	.	.	.	.	.
=25	=25	=25	=25	=25	=25	=25	=25	=25
4Cmm	C:min7	4r	.	1r	.	.	48.228	.
2.B-M	B-:maj	4g	just	.	.	.	48.725	.
.	.	4e-	run-	.	.	.	.	.
.	.	8c	-nin'	.	.	.	.	.
.	.	8e-q	_	.	.	.	.	.
.	.	8f	scared!	.	.	D	.	.
=26	=26	=26	=26	=26	=26	=26	=26	=26
4Fmm	F:min7	8.e-	_	1r	.	.	50.217	.
.	.	16f	_	.	.	.	.	.
4Gmm	G:min7	8g	_	.	.	.	50.714	.
.	.	8r	.	.	.	.	.	.
4E-M	E-:maj	2r	.	.	.	.	51.211	.
4FM	F:maj	.	.	.	.	.	51.708	.
=27	=27	=27	=27	=27	=27	=27	=27	=27
4Cmm	C:min7	4r	.	1r	.	.	52.205	newline
2.B-M	B-:maj	4g 4b-	I	.	.	.	52.701	.
.	.	4g 4b-	saw	.	.	.	.	.
.	.	8g 8b-	your	.	.	.	.	.
.	.	8g 8b-	face	.	.	.	.	.
=28	=28	=28	=28	=28	=28	=28	=28	=28
4Fmm	F:min7	8f 8a-	_	1r	.	.	54.189	.
.	.	8e- 8g	and	.	.	.	.	.
2.Gmm	G:min7	8e- 8g	some-	.	.	.	54.685	.
.	.	8c 8f	-thin'	.	.	.	.	.
.	.	4f 4a-	told	.	.	(C	.	.
.	.	8e- 8g	me	.	.	c)	.	.
.	.	8c 8e-	_	.	.	.	.	.
=29	=29	=29	=29	=29	=29	=29	=29	=29
4Cmm	C:min7	4r	.	1r	.	.	56.172	.
2.B-M	B-:maj	4g	you	.	.	.	56.668	.
.	.	4e-	were	.	.	.	.	.
.	.	8c	the	.	.	.	.	.
.	.	8e-q	_	.	.	.	.	.
.	.	8f	one!	.	.	E	.	.
=30	=30	=30	=30	=30	=30	=30	=30	=30
4Fmm	F:min7	4e-	_	1r	.	.	58.156	.
2.Gmm	G:min7	16f	_	.	.	.	58.652	.
.	.	8g	_	.	.	.	.	.
.	.	16r	.	.	.	.	.	.
.	.	2r	.	.	.	.	.	.
=31	=31	=31	=31	=31	=31	=31	=31	=31
4Cmm	C:min7	4r	.	1r	.	.	60.14	newline
2.B-M	B-:maj	4g	You	.	.	.	60.636	.
.	.	4g	smiled	.	.	.	.	.
.	.	8g	at	.	.	.	.	.
.	.	8g	me	.	.	F	.	.
=32	=32	=32	=32	=32	=32	=32	=32	=32
4Fmm	F:min7	8f	_	1r	.	.	62.124	.
.	.	8e-	and	.	.	.	.	.
2.Gmm	G:min7	8e-	now	.	.	.	62.62	.
.	.	8c	_	.	.	.	.	.
.	.	4e-	I	.	.	.	.	.
.	.	4f	see	.	.	F	.	.
=33	=33	=33	=33	=33	=33	=33	=33	=33
4A-MM	A-:maj7	4r	.	1r	.	.	64.108	.
4Gmm	G:min7	4g	my	.	.	.	64.604	.
2Fmm	F:min7	4e-	life's	.	.	.	65.1	.
.	.	8c	be-	.	.	.	.	.
.	.	8c	-gun	.	.	E	.	.
=34	=34	=34	=34	=34	=34	=34	=34	=34
4FM	F:maj/2	8B-	_	1r	.	.	66.092	.
.	.	8G	_	.	.	.	.	.
2.Fmm	F:min7	16B-	_	.	.	.	66.588	.
.	.	[8.c	_	.	.	.	.	.
.	.	2c_	_	.	.	.	.	.
=35	=35	=35	=35	=35	=35	=35	=35	=35
1Fmm	F:min7	2c]	_	1r	.	.	68.076	.
.	.	2r	.	.	.	.	.	.
=36	=36	=36	=36	=36	=36	=36	=36	=36
*>Letter>C	*>Letter>C	*>Letter>C	*>Letter>C	*>Letter>C	*>Letter>C	*>Letter>C	*>Letter>C	*>Letter>C
*>Label>Interlude	*>Label>Interlude	*>Label>Interlude	*>Label>Interlude	*>Label>Interlude	*>Label>Interlude	*>Label>Interlude	*>Label>Interlude	*>Label>Interlude
4A-MM	A-:maj7	1r	.	1r	.	.	70.06	newline
4Gmm	G:min7	.	.	.	.	.	70.562	.
2Fmm	F:min7	.	.	.	.	.	71.064	.
=37	=37	=37	=37	=37	=37	=37	=37	=37
4FM	F:maj/2	1r	.	1r	.	.	72.068	.
2.Fmm	F:min7	.	.	.	.	.	72.57	.
=38	=38	=38	=38	=38	=38	=38	=38	=38
1Fmm	F:min7	1r	.	1r	.	.	74.076	.
=39	=39	=39	=39	=39	=39	=39	=39	=39
*>Letter>A	*>Letter>A	*>Letter>A	*>Letter>A	*>Letter>A	*>Letter>A	*>Letter>A	*>Letter>A	*>Letter>A
*>Label>Chorus	*>Label>Chorus	*>Label>Chorus	*>Label>Chorus	*>Label>Chorus	*>Label>Chorus	*>Label>Chorus	*>Label>Chorus	*>Label>Chorus
4Cmm	C:min7	8g	La-	2r	.	(A	76.084	newline
.	.	8g	-dy,	.	.	a)	.	.
4B-M	B-:maj	4r	.	.	.	.	76.574	.
2A-MM	A-:maj7	2r	.	8r	.	.	77.064	.
.	.	.	.	8b-	Pret-	.	.	.
.	.	.	.	8g	-ty	.	.	.
.	.	.	.	[8b-	la	.	.	.
=40	=40	=40	=40	=40	=40	=40	=40	=40
4Gmm	G:min7	4r	.	4b-]	_	.	78.044	.
2.Fmm	F:min7	8r	.	4g	dy!	.	78.534	.
.	.	8c	You	.	.	.	.	.
.	.	4e-	brought	2r	.	.	.	.
.	.	8c	me	.	.	.	.	.
.	.	8g	in	.	.	.	.	.
=41	=41	=41	=41	=41	=41	=41	=41	=41
4Cmm	C:min7	8r	.	1r	.	.	80.004	.
.	.	8B-	from	.	.	.	.	.
4B-M	B-:maj	8c	out	.	.	.	80.494	.
.	.	8B-	the	.	.	.	.	.
2A-MM	A-:maj7	4c	rain.	.	.	G	80.984	.
.	.	4r	.	.	.	.	.	.
=42	=42	=42	=42	=42	=42	=42	=42	=42
4Gmm	G:min7	2r	.	2r	.	.	81.964	.
2Fmm	F:min7	.	.	.	.	.	82.454	.
.	.	4r	.	4f	Yeah!	.	.	.
4GMm	G:7/3	8r	.	4e-	_	.	83.434	.
.	.	8c	And	.	.	.	.	.
=43	=43	=43	=43	=43	=43	=43	=43	=43
4Cmm	C:min7	8g	may-	1r	.	(A	83.924	newline
.	.	8g	-be,	.	.	a)	.	.
4B-M	B-:maj	8f	_	.	.	.	84.42	.
.	.	8e-	_	.	.	.	.	.
2A-MM	A-:maj7	2r	.	.	.	.	84.915	.
=44	=44	=44	=44	=44	=44	=44	=44	=44
4Gmm	G:min7	4r	.	1r	.	.	85.907	.
2.Fmm	F:min7	8r	.	.	.	.	86.402	.
.	.	8c	my	.	.	.	.	.
.	.	4e-	life	.	.	.	.	.
.	.	8c	will	.	.	.	.	.
.	.	[8g	ne	.	.	.	.	.
=45	=45	=45	=45	=45	=45	=45	=45	=45
4A-MM	A-:maj7	8g]	_	1r	.	.	87.889	.
.	.	8B-	ver	.	.	.	.	.
4Gmm	G:min7	8c	be	.	.	.	88.385	.
.	.	8B-	the	.	.	.	.	.
2Fmm	F:min7	4c	same.	.	.	G	88.88	.
.	.	4r	.	.	.	.	.	.
=46	=46	=46	=46	=46	=46	=46	=46	=46
4FM	F:maj/2	1r	.	1r	.	.	89.872	.
2.Fmm	F:min7	.	.	.	.	.	90.367	.
=47	=47	=47	=47	=47	=47	=47	=47	=47
1Fmm	F:min7	1r	.	1r	.	.	91.854	.
=48	=48	=48	=48	=48	=48	=48	=48	=48
*>Letter>B	*>Letter>B	*>Letter>B	*>Letter>B	*>Letter>B	*>Letter>B	*>Letter>B	*>Letter>B	*>Letter>B
*>Label>Verse	*>Label>Verse	*>Label>Verse	*>Label>Verse	*>Label>Verse	*>Label>Verse	*>Label>Verse	*>Label>Verse	*>Label>Verse
4Cmm	C:min7	4r	.	1r	.	.	93.837	newline
2.B-M	B-:maj	4g	Once	.	.	.	94.338	.
.	.	4g	I	.	.	.	.	.
.	.	8g	was	.	.	.	.	.
.	.	8g	filled	.	.	.	.	.
=49	=49	=49	=49	=49	=49	=49	=49	=49
4Fmm	F:min7	8f	_	1r	.	.	95.84	.
.	.	8e-	with	.	.	.	.	.
2.Gmm	G:min7	8e-	des-	.	.	(H	96.341	.
.	.	8c	-per-	.	.	.	.	.
.	.	4f	-ra-	.	.	.	.	.
.	.	8e-	-tion,	.	.	h)	.	.
.	.	8c	_	.	.	.	.	.
=50	=50	=50	=50	=50	=50	=50	=50	=50
4Cmm	C:min7	8r	.	1r	.	.	97.844	.
.	.	8c	a	.	.	.	.	.
2.B-M	B-:maj	8g	so-	.	.	.	98.345	.
.	.	8g	-li-	.	.	.	.	.
.	.	4e-	-ta-	.	.	.	.	.
.	.	8c	-ry	.	.	.	.	.
.	.	8c	man	.	.	I	.	.
=51	=51	=51	=51	=51	=51	=51	=51	=51
4Fmm	F:min7	16d	_	1r	.	.	99.848	.
.	.	16c	_	.	.	.	.	.
.	.	[8B-	_	.	.	.	.	.
2.Gmm	G:min7	8B-]	_	.	.	.	100.349	.
.	.	8c	_	.	.	.	.	.
.	.	2r	.	.	.	.	.	.
=52	=52	=52	=52	=52	=52	=52	=52	=52
4Cmm	C:min7	4r	.	1r	.	.	101.852	newline
2.B-M	B-:maj	4g	You	.	.	.	102.346	.
.	.	4g	gave	.	.	.	.	.
.	.	8g	me	.	.	.	.	.
.	.	16g	hope	.	.	.	.	.
.	.	[16f	_	.	.	.	.	.
=53	=53	=53	=53	=53	=53	=53	=53	=53
4Fmm	F:min7	8f]	_	1r	.	.	103.828	.
.	.	8e-	and	.	.	.	.	.
2.Gmm	G:min7	8e-	in-	.	.	(H	104.322	.
.	.	8c	-spi-	.	.	.	.	.
.	.	4f	-ra-	.	.	.	.	.
.	.	16e-	-tion,	.	.	h)	.	.
.	.	8.c	_	.	.	.	.	.
=54	=54	=54	=54	=54	=54	=54	=54	=54
4Cmm	C:min7	8r	.	1r	.	.	105.804	.
.	.	8g	like	.	.	.	.	.
2.B-M	B-:maj	8g	on-	.	.	.	106.298	.
.	.	8g	-ly	.	.	.	.	.
.	.	8e-	true	.	.	.	.	.
.	.	8c	love	.	.	.	.	.
.	.	8r	.	.	.	.	.	.
.	.	[8f	can!	.	.	I	.	.
=55	=55	=55	=55	=55	=55	=55	=55	=55
4Fmm	F:min7	4.f]	_	1r	.	.	107.78	.
4Gmm	G:min7	.	.	.	.	.	108.274	.
.	.	8g	_	.	.	.	.	.
4E-M	E-:maj	2r	.	.	.	.	108.768	.
4FM	F:maj	.	.	.	.	.	109.262	.
=56	=56	=56	=56	=56	=56	=56	=56	=56
4Cmm	C:min7	4r	.	1r	.	.	109.756	newline
2.B-M	B-:maj	4g 4b-	Now	.	.	.	110.253	.
.	.	4g 4b-	I	.	.	.	.	.
.	.	8g 8b-	be-	.	.	.	.	.
.	.	8g [8b-	-lieve	.	.	.	.	.
=57	=57	=57	=57	=57	=57	=57	=57	=57
4Fmm	F:min7	8f 8b-]	_	1r	.	.	111.744	.
.	.	8e- 8g	in	.	.	.	.	.
2.Gmm	G:min7	8e- 8g	what	.	.	.	112.241	.
.	.	8c 8e-	you're	.	.	.	.	.
.	.	4f 4a-	sa-	.	.	(J	.	.
.	.	8f [8g	-yin	.	.	j)	.	.
.	.	8e- 8g]	',	.	.	.	.	.
=58	=58	=58	=58	=58	=58	=58	=58	=58
4Cmm	C:min7	4r	.	1r	.	.	113.732	.
2.B-M	B-:maj	8g	I'm	.	.	.	114.229	.
.	.	8b-	ten	.	.	.	.	.
.	.	8r	.	.	.	.	.	.
.	.	8a-	feet	.	.	.	.	.
.	.	8g-	_	.	.	.	.	.
.	.	16g	tall	.	.	K	.	.
.	.	16f	_	.	.	.	.	.
=59	=59	=59	=59	=59	=59	=59	=59	=59
4Fmm	F:min7	4e-	_	1r	.	.	115.72	.
2.Gmm	G:min7	8c	_	.	.	.	116.217	.
.	.	8r	.	.	.	.	.	.
.	.	2r	.	.	.	.	.	.
=60	=60	=60	=60	=60	=60	=60	=60	=60
4Cmm	C:min7	4r	.	1r	.	.	117.708	newline
2.B-M	B-:maj	8g	This	.	.	.	118.205	.
.	.	8a-	_	.	.	.	.	.
.	.	8f#q	_	.	.	.	.	.
.	.	4g	love	.	.	.	.	.
.	.	8f	don't	.	.	.	.	.
.	.	[8e-	need	.	.	.	.	.
=61	=61	=61	=61	=61	=61	=61	=61	=61
4Fmm	F:min7	8e-]	_	1r	.	.	119.698	.
.	.	8c	no	.	.	.	.	.
2.Gmm	G:min7	8e-	ex-	.	.	.	120.196	.
.	.	[8f	-pla	.	.	(J	.	.
.	.	8f]	_	.	.	.	.	.
.	.	8g	nin',	.	.	j)	.	.
.	.	8f	_	.	.	.	.	.
.	.	8r	.	.	.	.	.	.
=62	=62	=62	=62	=62	=62	=62	=62	=62
4A-MM	A-:maj7	4r	.	1r	.	.	121.688	.
4Gmm	G:min7	4g	We've	.	.	.	122.186	.
2Fmm	F:min7	8e-	got	.	.	.	122.683	.
.	.	8c	it	.	.	.	.	.
.	.	8r	.	.	.	.	.	.
.	.	8B-q	_	.	.	.	.	.
.	.	[8c	all!	.	.	K	.	.
=63	=63	=63	=63	=63	=63	=63	=63	=63
4FM	F:maj/2	8c]	_	1r	.	.	123.678	.
.	.	8e-	_	.	.	.	.	.
2.Fmm	F:min7	8c	_	.	.	.	124.176	.
.	.	[8e-	_	.	.	.	.	.
.	.	4e-]	_	.	.	.	.	.
.	.	8f	_	.	.	.	.	.
.	.	8e-	_	.	.	.	.	.
=64	=64	=64	=64	=64	=64	=64	=64	=64
*>Letter>A	*>Letter>A	*>Letter>A	*>Letter>A	*>Letter>A	*>Letter>A	*>Letter>A	*>Letter>A	*>Letter>A
*>Label>Chorus	*>Label>Chorus	*>Label>Chorus	*>Label>Chorus	*>Label>Chorus	*>Label>Chorus	*>Label>Chorus	*>Label>Chorus	*>Label>Chorus
4Cmm	C:min7	8g	Lady!	8g	La-	(A	125.668	newline
.	.	8g	_	8g	-dy,	a)	.	.
4B-M	B-:maj	4f#	_	4r	.	.	126.163	.
2A-MM	A-:maj7	2r	.	2r	.	.	126.657	.
=65	=65	=65	=65	=65	=65	=65	=65	=65
4Gmm	G:min7	1r	.	4r	.	.	127.646	.
2.Fmm	F:min7	.	.	8r	.	.	128.14	.
.	.	.	.	8c	you	.	.	.
.	.	.	.	4e-	bring	.	.	.
.	.	.	.	8c	me	.	.	.
.	.	.	.	8g	up	.	.	.
=66	=66	=66	=66	=66	=66	=66	=66	=66
4Cmm	C:min7	2r	.	8r	.	.	129.624	.
.	.	.	.	8B-	when	.	.	.
4B-M	B-:maj	.	.	8c	I	.	130.118	.
.	.	.	.	8B-	am	(b	.	.
2A-MM	A-:maj7	4r	.	4c	down.	B)	130.613	.
.	.	8r	.	4r	.	.	.	.
.	.	8g	Up,	.	.	.	.	.
=67	=67	=67	=67	=67	=67	=67	=67	=67
4Gmm	G:min7	8r	.	2r	.	.	131.602	.
.	.	8c	when	.	.	.	.	.
2Fmm	F:min7	8c	I	.	.	.	132.096	.
.	.	8B-	am	.	.	.	.	.
.	.	16c	down!	4r	.	.	.	.
.	.	16B-	_	.	.	.	.	.
.	.	16c	_	.	.	.	.	.
.	.	[16B-	_	.	.	.	.	.
4GMm	G:7/3	8B-]	_	8r	.	.	133.085	.
.	.	8c	_	8c	And	.	.	.
=68	=68	=68	=68	=68	=68	=68	=68	=68
4Cmm	C:min7	2r	.	8g	may-	.	133.58	newline
.	.	.	.	8g	-be,	.	.	.
4B-M	B-:maj	.	.	16f	_	.	133.977	.
.	.	.	.	16e-	_	.	.	.
.	.	.	.	8r	.	.	.	.
2A-MM	A-:maj7	8a-	May	2r	.	(A	134.374	.
.	.	8g	_	.	.	.	.	.
.	.	8fq	_	.	.	.	.	.
.	.	8g	_	.	.	.	.	.
.	.	8f	be!	.	.	a)	.	.
=69	=69	=69	=69	=69	=69	=69	=69	=69
*	*	*	*	*clefF4	*	*	*	*
4Gmm	G:min7	8.e-	_	4r	.	.	135.169	.
.	.	16c	_	.	.	.	.	.
2.Fmm	F:min7	4r	.	8r	.	.	135.566	.
.	.	.	.	8c	you're	.	.	.
.	.	2r	.	4e-	gon-	.	.	.
.	.	.	.	8c	-na	.	.	.
.	.	.	.	[8g	change	.	.	.
=70	=70	=70	=70	=70	=70	=70	=70	=70
4A-MM	A-:maj7	1r	.	8g]	_	.	136.757	.
.	.	.	.	8c	my	.	.	.
4Gmm	G:min7	.	.	8e-	life	.	137.155	.
.	.	.	.	8e-	a-	(b	.	.
2Fmm	F:min7	.	.	8c	-round	B)	137.552	.
.	.	.	.	16B-	_	.	.	.
.	.	.	.	16G	_	.	.	.
.	.	.	.	8G	_	.	.	.
.	.	.	.	16F	_	.	.	.
.	.	.	.	16E-	_	.	.	.
=71	=71	=71	=71	=71	=71	=71	=71	=71
4FM	F:maj/2	1r	.	16F	_	.	138.346	.
.	.	.	.	8.E-	_	.	.	.
2.Fmm	F:min7	.	.	[4E-	_	.	138.743	.
.	.	.	.	4.E-]	.	.	.	.
.	.	.	.	8r	.	.	.	.
=72	=72	=72	=72	=72	=72	=72	=72	=72
*>Letter>D	*>Letter>D	*>Letter>D	*>Letter>D	*>Letter>D	*>Letter>D	*>Letter>D	*>Letter>D	*>Letter>D
*>Label>Bridge	*>Label>Bridge	*>Label>Bridge	*>Label>Bridge	*>Label>Bridge	*>Label>Bridge	*>Label>Bridge	*>Label>Bridge	*>Label>Bridge
1A-MM	A-:maj7	4r	.	1r	.	.	141.524	newline
.	.	4c	Na	.	.	.	.	.
.	.	4d	na	.	.	.	.	.
.	.	4e-	na	.	.	.	.	.
=73	=73	=73	=73	=73	=73	=73	=73	=73
.	.	8c#q	_	.	.	.	.	.
1B-M	B-:maj/b7	4d	na	1r	.	.	143.512	.
.	.	8c	na	.	.	.	.	.
.	.	8B-	_	.	.	.	.	.
.	.	2B-	na...	.	.	.	.	.
=74	=74	=74	=74	=74	=74	=74	=74	=74
1A-dm	A-:hdim7	4r	.	1r	.	.	145.501	.
.	.	4B	na	.	.	.	.	.
.	.	4c	na	.	.	.	.	.
.	.	4d	na	.	.	.	.	.
=75	=75	=75	=75	=75	=75	=75	=75	=75
.	.	8dq	_	.	.	.	.	.
1Cmm	C:min7	4e-	na	1r	.	.	147.489	.
.	.	8d	na	.	.	.	.	.
.	.	8c	_	.	.	.	.	.
.	.	2c	na...	.	.	.	.	.
=76	=76	=76	=76	=76	=76	=76	=76	=76
1A-MM	A-:maj7	4r	.	1r	.	.	149.478	newline
.	.	4c	na	.	.	.	.	.
.	.	4d	na	.	.	.	.	.
.	.	4e-	na	.	.	.	.	.
=77	=77	=77	=77	=77	=77	=77	=77	=77
.	.	8e-q	_	.	.	.	.	.
1B-M	B-:maj/b7	4f	na	1r	.	.	151.463	.
.	.	8c#q	_	.	.	.	.	.
.	.	4d	na	.	.	.	.	.
.	.	8c	na	.	.	.	.	.
.	.	8B-	_	.	.	.	.	.
.	.	4B-	na...	.	.	.	.	.
=78	=78	=78	=78	=78	=78	=78	=78	=78
1A-dm	A-:hdim7	4r	.	1r	.	.	153.449	.
.	.	4B	na	.	.	.	.	.
.	.	4c	na	.	.	.	.	.
.	.	4d	na	.	.	.	.	.
=79	=79	=79	=79	=79	=79	=79	=79	=79
.	.	8dq	_	.	.	.	.	.
1Cmm	C:min7	4e-	na	1r	.	.	155.434	.
.	.	8d	na	.	.	.	.	.
.	.	8c	_	.	.	.	.	.
.	.	2c	na...	.	.	.	.	.
=80	=80	=80	=80	=80	=80	=80	=80	=80
1A-MM	A-:maj7	1r	.	4r	.	.	157.42	newline
.	.	.	.	4c	na	.	.	.
.	.	.	.	4d	na	.	.	.
.	.	.	.	4e-	na	.	.	.
=81	=81	=81	=81	=81	=81	=81	=81	=81
.	.	.	.	8c#q	_	.	.	.
1B-M	B-:maj/b7	1r	.	4d	na	.	159.386	.
.	.	.	.	8c	na	.	.	.
.	.	.	.	8B-	_	.	.	.
.	.	.	.	2B-	na...	.	.	.
=82	=82	=82	=82	=82	=82	=82	=82	=82
1A-dm	A-:hdim7	1r	.	4r	.	.	161.352	.
.	.	.	.	4B	na	.	.	.
.	.	.	.	4c	na	.	.	.
.	.	.	.	4d	na	.	.	.
=83	=83	=83	=83	=83	=83	=83	=83	=83
*	*	*	*	*clefG2	*	*	*	*
.	.	.	.	8dq 8fq 8b-q	_	.	.	.
1Cmm	C:min7	1r	.	4e- 4g 4cc	la	.	163.318	.
.	.	.	.	8d 8f 8b-	la	.	.	.
.	.	.	.	8c 8e- 8g	_	.	.	.
.	.	.	.	4c 4e- 4g	la	.	.	.
.	.	.	.	8d 8f 8b-	la	.	.	.
.	.	.	.	8e- 8g 8cc	_	.	.	.
=84	=84	=84	=84	=84	=84	=84	=84	=84
1Fmm	F:min7	1r	.	1e- 1g 1cc	la...	.	165.284	newline
=85	=85	=85	=85	=85	=85	=85	=85	=85
1B-M	B-:maj/b7	[2.g	Whoa,	1r	.	.	167.313	.
.	.	8g]	_	.	.	.	.	.
.	.	8f	_	.	.	.	.	.
=86	=86	=86	=86	=86	=86	=86	=86	=86
*>Letter>A	*>Letter>A	*>Letter>A	*>Letter>A	*>Letter>A	*>Letter>A	*>Letter>A	*>Letter>A	*>Letter>A
*>Label>Chorus	*>Label>Chorus	*>Label>Chorus	*>Label>Chorus	*>Label>Chorus	*>Label>Chorus	*>Label>Chorus	*>Label>Chorus	*>Label>Chorus
4Cmm	C:min7	8g	la-	8g	La-	(A	169.343	newline
.	.	8g	-dy!	8g	-dy!	a)	.	.
4B-M	B-:maj	8f#	_	4r	.	.	169.837	.
.	.	8r	.	.	.	.	.	.
2A-MM	A-:maj7	4e-	Mm,	2r	.	.	170.331	.
.	.	8f	ah!	.	.	.	.	.
.	.	8r	.	.	.	.	.	.
=87	=87	=87	=87	=87	=87	=87	=87	=87
4Gmm	G:min7	1r	.	4r	.	.	171.32	.
2.Fmm	F:min7	.	.	8r	.	.	171.814	.
.	.	.	.	8c	You	.	.	.
.	.	.	.	4e-	bring	.	.	.
.	.	.	.	8c	me	.	.	.
.	.	.	.	8g	up	.	.	.
=88	=88	=88	=88	=88	=88	=88	=88	=88
4Cmm	C:min7	2r	.	8r	.	.	173.297	.
.	.	.	.	8B-	when	.	.	.
4B-M	B-:maj	.	.	8c	I	.	173.792	.
.	.	.	.	8B-	am	(b	.	.
2A-MM	A-:maj7	4r	.	4c	down!	B)	174.286	.
.	.	8r	.	4r	.	.	.	.
.	.	8g	Up	.	.	.	.	.
=89	=89	=89	=89	=89	=89	=89	=89	=89
4Gmm	G:min7	8r	.	2r	.	.	175.275	.
.	.	8c	when	.	.	.	.	.
2Fmm	F:min7	8c	I	.	.	.	175.769	.
.	.	8B-	am	.	.	(b	.	.
.	.	16c	down!	4r	.	B)	.	.
.	.	16B-	_	.	.	.	.	.
.	.	16c	_	.	.	.	.	.
.	.	[16B-	_	.	.	.	.	.
4GMm	G:7/3	8B-]	_	8r	.	.	176.758	.
.	.	8c	_	8c	And	.	.	.
=90	=90	=90	=90	=90	=90	=90	=90	=90
4Cmm	C:min7	2r	.	8g	may-	(A	177.252	newline
.	.	.	.	8g	-be,	a)	.	.
4B-M	B-:maj	.	.	16f	_	.	177.747	.
.	.	.	.	16e-	_	.	.	.
.	.	.	.	8r	.	.	.	.
2A-MM	A-:maj7	4.f	_	2r	.	.	178.243	.
.	.	[8e-	_	.	.	.	.	.
=91	=91	=91	=91	=91	=91	=91	=91	=91
4Gmm	G:min7	8e-]	_	4r	.	.	179.234	.
.	.	8c	_	.	.	.	.	.
2.Fmm	F:min7	4r	.	8r	.	.	179.729	.
.	.	.	.	8c	you're	.	.	.
.	.	2r	.	4e-	gon-	.	.	.
.	.	.	.	8c	-na	.	.	.
.	.	.	.	[8g	change	.	.	.
=92	=92	=92	=92	=92	=92	=92	=92	=92
4Cmm	C:min7	2r	.	8g]	_	.	181.216	.
.	.	.	.	8B-	my	.	.	.
4B-M	B-:maj	.	.	8c	life	.	181.712	.
.	.	.	.	8B-	a-	(b	.	.
2A-MM	A-:maj7	4f	_	4c	-round!	B)	182.207	.
.	.	8e-	_	4r	.	.	.	.
.	.	8r	.	.	.	.	.	.
=93	=93	=93	=93	=93	=93	=93	=93	=93
4Gmm	G:min7	4f	_	2r	.	.	183.198	.
2Fmm	F:min7	8e-	_	.	.	.	183.694	.
.	.	8r	.	.	.	.	.	.
.	.	4f	_	8r	.	.	.	.
.	.	.	.	4.b- 4.ee-	Ooh!	.	.	.
4GMm	G:7/3	8e-	_	.	.	.	184.685	.
.	.	8r	.	.	.	.	.	.
=94	=94	=94	=94	=94	=94	=94	=94	=94
4Cmm	C:min7	8g	La-	8g 8cc	La-	(A	185.18	newline
.	.	8g	-dy!	8g 8cc	-dy!	a)	.	.
2.B-M	B-:maj	4f#	_	4r	.	.	185.679	.
.	.	2r	.	2r	.	.	.	.
=95	=95	=95	=95	=95	=95	=95	=95	=95
4Fmm	F:min7	1r	.	1r	.	.	187.174	.
2.Gmm	G:min7	.	.	.	.	.	187.673	.
=96	=96	=96	=96	=96	=96	=96	=96	=96
4Cmm	C:min7	1r	.	1r	.	.	189.168	.
2.B-M	B-:maj	.	.	.	.	.	189.667	.
=97	=97	=97	=97	=97	=97	=97	=97	=97
4Fmm	F:min7	1r	.	1r	.	.	191.162	.
2.Gmm	G:min7	.	.	.	.	.	191.661	.
=98	=98	=98	=98	=98	=98	=98	=98	=98
*>Letter>A	*>Letter>A	*>Letter>A	*>Letter>A	*>Letter>A	*>Letter>A	*>Letter>A	*>Letter>A	*>Letter>A
*>Label>Outro	*>Label>Outro	*>Label>Outro	*>Label>Outro	*>Label>Outro	*>Label>Outro	*>Label>Outro	*>Label>Outro	*>Label>Outro
4Cmm	C:min7	1r	.	1r	.	.	193.157	newline
2.B-M	B-:maj	.	.	.	.	.	193.647	.
=99	=99	=99	=99	=99	=99	=99	=99	=99
4Fmm	F:min7	1r	.	1r	.	.	195.119	.
2.Gmm	G:min7	.	.	.	.	.	195.609	.
=100	=100	=100	=100	=100	=100	=100	=100	=100
4Cmm	C:min7	1r	.	1r	.	.	197.081	.
2.B-M	B-:maj	.	.	.	.	.	197.571	.
=101	=101	=101	=101	=101	=101	=101	=101	=101
4Fmm	F:min7	1r	.	2r	.	.	199.043	.
4Gmm	G:min7	.	.	.	.	.	199.533	.
4E-M	E-:maj	.	.	8r	.	.	200.024	.
.	.	.	.	4.b- 4.ee-	Ooh!	.	.	.
4FM	F:maj	.	.	.	.	.	200.514	.
=102	=102	=102	=102	=102	=102	=102	=102	=102
4Cmm	C:min7	1r	.	8g	La-	.	201.005	newline
.	.	.	.	8g	-dy!	.	.	.
2.B-M	B-:maj	.	.	4r	.	.	201.502	.
.	.	.	.	2r	.	.	.	.
=103	=103	=103	=103	=103	=103	=103	=103	=103
4Fmm	F:min7	1r	.	4r	.	.	202.993	.
2.Gmm	G:min7	.	.	8r	.	.	203.49	.
.	.	.	.	8c	You	.	.	.
.	.	.	.	4e-	bring	.	.	.
.	.	.	.	8c	me	.	.	.
.	.	.	.	8g	up	.	.	.
=104	=104	=104	=104	=104	=104	=104	=104	=104
4Cmm	C:min7	1r	.	8r	.	.	204.981	.
.	.	.	.	8B-	when	.	.	.
2.B-M	B-:maj	.	.	8c	I	.	205.478	.
.	.	.	.	8B-	am	(b	.	.
.	.	.	.	4c	down.	B)	.	.
.	.	.	.	4r	.	.	.	.
=105	=105	=105	=105	=105	=105	=105	=105	=105
4Fmm	F:min7	1r	.	2r	.	.	206.969	.
2.Gmm	G:min7	.	.	.	.	.	207.466	.
.	.	.	.	4r	.	.	.	.
.	.	.	.	8r	.	.	.	.
.	.	.	.	8c	And	.	.	.
=106	=106	=106	=106	=106	=106	=106	=106	=106
4Cmm	C:min7	1r	.	8g	may-	(A	208.957	newline
.	.	.	.	8g	-be,	a)	.	.
2.B-M	B-:maj	.	.	16f	_	.	209.452	.
.	.	.	.	16e-	_	.	.	.
.	.	.	.	8r	.	.	.	.
.	.	.	.	2r	.	.	.	.
=107	=107	=107	=107	=107	=107	=107	=107	=107
4Fmm	F:min7	1r	.	4r	.	.	210.939	.
2.Gmm	G:min7	.	.	8r	.	.	211.434	.
.	.	.	.	8c	you're	.	.	.
.	.	.	.	4e-	gon-	.	.	.
.	.	.	.	8c	-na	.	.	.
.	.	.	.	[8g	change	.	.	.
=108	=108	=108	=108	=108	=108	=108	=108	=108
4Cmm	C:min7	1r	.	8g]	_	.	212.921	.
.	.	.	.	8B-	my	.	.	.
2.B-M	B-:maj	.	.	8c	life	.	213.416	.
.	.	.	.	8B-	a-	(b	.	.
.	.	.	.	4c	-round!	B)	.	.
.	.	.	.	4r	.	.	.	.
=109	=109	=109	=109	=109	=109	=109	=109	=109
4Fmm	F:min7	1r	.	2r	.	.	214.903	.
4Gmm	G:min7	.	.	.	.	.	215.399	.
4E-M	E-:maj	.	.	8r	.	.	215.894	.
.	.	.	.	4.b- 4.ee-	Ooh!	.	.	.
4FM	F:maj	.	.	.	.	.	216.39	.
=110	=110	=110	=110	=110	=110	=110	=110	=110
4Cmm	C:min7	1r	.	8g	La-	(A	216.885	newline
.	.	.	.	8g	-dy!	a)	.	.
2.B-M	B-:maj	.	.	4r	.	.	217.385	.
.	.	.	.	2r	.	.	.	.
=111	=111	=111	=111	=111	=111	=111	=111	=111
4Fmm	F:min7	1r	.	1r	.	.	218.883	.
2.Gmm	G:min7	.	.	.	.	.	219.383	.
=112	=112	=112	=112	=112	=112	=112	=112	=112
4Cmm	C:min7	1r	.	1r	.	.	220.881	.
2.B-M	B-:maj	.	.	.	.	.	221.38	.
=113	=113	=113	=113	=113	=113	=113	=113	=113
4Fmm	F:min7	1r	.	1r	.	.	222.879	.
2.Gmm	G:min7	.	.	.	.	.	223.378	.
=114	=114	=114	=114	=114	=114	=114	=114	=114
*>Label>>Fadeout	*>Label>>Fadeout	*>Label>>Fadeout	*>Label>>Fadeout	*>Label>>Fadeout	*>Label>>Fadeout	*>Label>>Fadeout	*>Label>>Fadeout	*>Label>>Fadeout
4Cmm	C:min7	1r	.	1r	.	.	224.877	newline
2.B-M	B-:maj	.	.	.	.	.	225.373	.
=115	=115	=115	=115	=115	=115	=115	=115	=115
4Fmm	F:min7	1r	.	1r	.	.	226.86	.
2.Gmm	G:min7	.	.	.	.	.	227.355	.
=116	=116	=116	=116	=116	=116	=116	=116	=116
4Cmm	C:min7	1r	.	1r	.	.	228.843	.
2.B-M	B-:maj	.	.	.	.	.	229.338	.
=117	=117	=117	=117	=117	=117	=117	=117	=117
4Fmm	F:min7	1r	.	2r	.	.	230.825	.
4Gmm	G:min7	.	.	.	.	.	231.321	.
4E-M	E-:maj	.	.	8r	.	.	231.817	.
.	.	.	.	4.b- 4.ee-	Ooh!	.	.	.
4FM	F:maj	.	.	.	.	.	232.313	.
=118	=118	=118	=118	=118	=118	=118	=118	=118
4Cmm	C:min7	8g	La-	1r	.	(A	232.56	newline
.	.	8g	-dy!	.	.	a)	.	.
2.B-M	B-:maj	4r	.	.	.	.	232.808	.
.	.	2r	.	.	.	.	.	.
=119	=119	=119	=119	=119	=119	=119	=119	=119
4Fmm	F:min7	4r	.	1r	.	.	238.013	.
2.Gmm	G:min7	8r	.	.	.	.	.	.
.	.	8c	You	.	.	.	.	.
.	.	4e-	bring	.	.	.	.	.
.	.	8c	me	.	.	.	.	.
.	.	8g	up	.	.	.	.	.
=120	=120	=120	=120	=120	=120	=120	=120	=120
4Cmm	C:min7	8r	.	1r	.	.	.	.
.	.	8B-	when	.	.	.	.	.
2.B-M	B-:maj	8c	I	.	.	.	.	.
.	.	8B-	am	.	.	(b	.	.
.	.	4c	down!	.	.	B)	.	.
.	.	4r	.	.	.	.	.	.
=121	=121	=121	=121	=121	=121	=121	=121	=121
4Fmm	F:min7	1r	.	1r	.	.	.	.
4Gmm	G:min7	.	.	.	.	.	.	.
4E-M	E-:maj	.	.	.	.	.	.	.
4FM	F:maj	.	.	.	.	.	.	.
1r;	1r	r;	.	r;	.	.	238.261	.
1r;	1r	r;	.	r;	.	.	241.307	.
*-	*-	*-	*-	*-	*-	*-	*-	*-
!!!BillboardChartDate: 1981/07/11
!!!BillboardPeak: 8
!!!BillboardWeeksOnChart: 22
!!!COC: Commodores
!!!ENC: Nathaniel Condit-Schultz
!!!EST: Awating manual error checking and editing.
!!!OTL: Lady (You Bring Me Up)
!!!RDF**chordsym: original McGill chord annotation + (implied pitch class set, with bass pitch in first position)
!!!RDF**harmony: **recip + pitch class of root + harmonic quality
!!!RDF**leadinstrument: original McGill primary instrumentation annotation
!!!RDF**phrase: newline = linebreak in original McGill transcription
!!!RDF**timestamp: McGill audio timestamp in seconds
!!!RDT: 2017/01/12/
!!!SampleActualRank: 35
!!!SampleID#: 0716
!!!SampleTargetRank: 36
!!!MBID: cc4d1b5e-26fc-4870-a3da-393719dad43a